assets/clevercloud/original.svg

<svg viewBox="0 0 24 24" xmlns="http://www.w3.org/2000/svg" fill="#171C36"><path d="m4.823 11.139 6.43-11.139-9.645 5.57zm-3.588-4.493v10.708l3.09-5.354zm10.765 16.924 6.43-11.14h-12.86zm0-23.14-6.43 11.14h12.86zm10.764 16.924v-10.708l-3.09 5.354zm.001.862-.374.215-3.215-5.57-6.43 11.139zm0-12.431-10.02-5.785 6.431 11.139 3.215-5.57zm-21.53 12.431 10.019 5.784-6.43-11.138-3.216 5.569z"/></svg>

<svg xmlns="http://www.w3.org/2000/svg" fill="#171c36" viewBox="0 0 24 24"><path d="M4.823 11.139 11.253 0 1.608 5.57zM1.235 6.646v10.708L4.325 12zM12 23.57l6.43-11.14H5.57zM12 .43 5.57 11.57h12.86zm10.764 16.924V6.646L19.674 12zm.001.862-.374.215-3.215-5.57L12.746 24zm0-12.431L12.745 0l6.431 11.139 3.215-5.57zM1.235 18.216 11.254 24l-6.43-11.138-3.216 5.569z"/></svg>
